X: 3444
M: 2/4
L: 1/16
K: D
g2ba b2g2 | f2a^g a2f2 | e2gf g2e2 | f2d2d2 :|
|: a2 |\
d'2c'2b2a2 | d'2c'2b2a2 | d'2c'2b2a2 | g2e2e2a2 |\
c'2b2a2g2 | c'2b2a2g2 | c'2b2a2g2 | f2d2d2 :|


